icons/svg/youtube.svg

<svg width="24" height="24" viewBox="0 0 24 24" fill="none" xmlns="http://www.w3.org/2000/svg">
<path d="M2.44995 11.4187C2.44995 8.40175 2.74995 6.89325 3.68721 5.956C4.62447 5.01874 6.13296 5.01874 9.14995 5.01874H14.85C17.8669 5.01874 19.3754 5.01874 20.3127 5.956C21.25 6.89325 21.5499 8.40175 21.5499 11.4187V12.5812C21.5499 15.5982 21.25 17.1067 20.3127 18.044C19.3754 18.9812 17.8669 18.9812 14.85 18.9812H9.14995C6.13296 18.9812 4.62447 18.9812 3.68721 18.044C2.74995 17.1067 2.44995 15.5982 2.44995 12.5812V11.4187Z" stroke="currentColor" stroke-width="1.5" stroke-linecap="round" stroke-linejoin="round"/>
<path d="M14.6859 11.4912L10.418 8.82375C10.0184 8.57398 9.5 8.86129 9.5 9.33255V14.6675C9.5 15.1387 10.0184 15.426 10.418 15.1763L14.6859 12.5088C15.0619 12.2738 15.0619 11.7262 14.6859 11.4912Z" stroke="currentColor" stroke-width="1.5" stroke-linejoin="round"/>
</svg>

<svg xmlns="http://www.w3.org/2000/svg" width="24" height="24" fill="none" viewBox="0 0 24 24"><path stroke="currentColor" stroke-linecap="round" stroke-linejoin="round" stroke-width="1.5" d="M2.45 11.419c0-3.017.3-4.526 1.237-5.463s2.446-.937 5.463-.937h5.7c3.017 0 4.525 0 5.463.937s1.237 2.446 1.237 5.463v1.162c0 3.017-.3 4.526-1.237 5.463s-2.446.937-5.463.937h-5.7c-3.017 0-4.526 0-5.463-.937S2.45 15.598 2.45 12.581z"/><path stroke="currentColor" stroke-linejoin="round" stroke-width="1.5" d="m14.686 11.491-4.268-2.667a.6.6 0 0 0-.918.509v5.335a.6.6 0 0 0 .918.508l4.268-2.667a.6.6 0 0 0 0-1.018Z"/></svg>
